icons/folder_type_gradle_opened.svg

<svg xmlns="http://www.w3.org/2000/svg" viewBox="0 0 32 32"><path d="M27.4 5.5h-9.2l-2.1 4.2H4.3v4H.5l3.8 12.8h25.2v-21Zm-7.2 2.1h7.1v2.1h-8.1Zm5.5 6.1H6.6v-1.9h20.8v7.626Z" style="fill:#7dc1d1"/><path d="M29.694 14.493a3.8 3.8 0 0 0-5.288-.085.357.357 0 0 0-.114.257.37.37 0 0 0 .106.263l.48.479a.361.361 0 0 0 .474.033 2.18 2.18 0 0 1 2.848 3.287c-3.011 3.028-7.056-5.436-16.2-1.08a1.242 1.242 0 0 0-.6 1.649 1.028 1.028 0 0 0 .049.093l1.562 2.711a1.245 1.245 0 0 0 1.682.463l.039-.023-.031.023.7-.391a15.987 15.987 0 0 0 2.192-1.629.38.38 0 0 1 .5-.016.357.357 0 0 1 .051.5.308.308 0 0 1-.051.051 16.6 16.6 0 0 1-2.293 1.736l-.025.014-.7.388a1.941 1.941 0 0 1-.962.252 1.991 1.991 0 0 1-1.727-1L10.9 19.911C8.053 21.924 6.324 25.8 7.252 30.706a.363.363 0 0 0 .357.294H9.3a.361.361 0 0 0 .372-.317 2.477 2.477 0 0 1 4.913 0 .361.361 0 0 0 .352.317h1.643a.365.365 0 0 0 .361-.317 2.474 2.474 0 0 1 4.91 0 .361.361 0 0 0 .358.317h1.628a.359.359 0 0 0 .36-.355c.04-2.295.658-4.93 2.423-6.249 6.094-4.568 4.487-8.483 3.074-9.903ZM23.467 21.4l-1.167-.582a.732.732 0 1 1 1.164.587Z" style="fill:#d2d2d2"/></svg>

<svg xmlns="http://www.w3.org/2000/svg" viewBox="0 0 32 32"><title>folder_type_gradle_opened</title><path d="M27.4,5.5H18.2L16.1,9.7H4.3v4H.5L4.3,26.5H29.5V5.5ZM20.2,7.6h7.1V9.7H19.2Zm5.5,6.1H6.6V11.8H27.4v7.626Z" style="fill:#7dc1d1"/><path d="M29.694,14.493a3.8,3.8,0,0,0-5.288-.085.357.357,0,0,0-.114.257.37.37,0,0,0,.106.263l.48.479a.361.361,0,0,0,.474.033A2.18,2.18,0,0,1,28.2,18.727c-3.011,3.028-7.056-5.436-16.2-1.08a1.242,1.242,0,0,0-.6,1.649,1.028,1.028,0,0,0,.049.093L13.011,22.1a1.245,1.245,0,0,0,1.682.463l.039-.023-.031.023.7-.391a15.987,15.987,0,0,0,2.192-1.629.38.38,0,0,1,.5-.016.357.357,0,0,1,.051.5h0a.308.308,0,0,1-.051.051A16.6,16.6,0,0,1,15.8,22.814l-.025.014-.7.388a1.941,1.941,0,0,1-.962.252,1.991,1.991,0,0,1-1.727-1L10.9,19.911C8.053,21.924,6.324,25.8,7.252,30.706A.363.363,0,0,0,7.609,31H9.3a.361.361,0,0,0,.372-.317,2.477,2.477,0,0,1,4.913,0,.361.361,0,0,0,.352.317H16.58a.365.365,0,0,0,.361-.317,2.474,2.474,0,0,1,4.91,0,.361.361,0,0,0,.358.317h1.628a.359.359,0,0,0,.36-.355c.04-2.295.658-4.93,2.423-6.249C32.714,19.828,31.107,15.913,29.694,14.493ZM23.467,21.4h0L22.3,20.818a.732.732,0,1,1,1.164.587Z" style="fill:#d2d2d2"/></svg>
